!!!OTL: In der finstern Metten. / (Deutscher Text zur Mel.: Laus tibi Christe.)
!!!ARE: Europa, Mitteleuropa, Deutschland
!!!SCT: A0539A
!!!TXL: @@GMH
!!!YEM: Copyright 1995, estate of Helmut Schaffrath.
**kern	**text
*M4/2yy	*
*clefC4	*
*k[]	*
*C:mix	*
!LO:TX:a:t=mixolyd.	!
{2G	Ey-
=1	=1
2G	-a
2G	der
2G	gro-
2G	-ßen
=2	=2
1A	lie-
2G}	-be,
{2G	die
=3	=3
2F	dich
2F	ge-
2E	-bun-
2D	-den
=4	=4
1C	hat,
2r}	.
{2G	gar
=5	=5
2G	her-
2G	-tig-
2G	-leich
2G	eim
=6	=6
1A	die-
2F	-be,
2r}	.
=7	=7
{2F	wa-
2F	-rer
2A	menſch
2A	vnd
=8	=8
2B-	wa-
2A	-rer
1G}	got.
=9	=9
{2G	du
2G	haſt
2G	her
2G	ge-
=10	=10
1c	-ge-
2G}	-ben
{2G	mit
=11	=11
2A	dei-
2A	-nem
2G	blu-
2G	-te
=12	=12
1F	rot
1r}	.
=13	=13
{2G	vns
2G	das
2G	e-
2A	-wig
=14	=14
1G	le-
2E}	-ben,
{2E	dank
=15	=15
2F	ſey
2F	dir
2D	mil-
2D	-ter
=16	=16
1.C}	got.
==	==
!!!GTL: Geistliche Volkslieder
!!!AGN: Romanze, Ballade, Lied, religioeses Lied
!! Spoerls Liederhs. 1392 - 1400.
!!!ONB: ESAC (Essen Associative Code) Database: ALTDEU
!!!AMT: simple quadruple
!!!AIN: vox
!!!EED: Helmut Schaffrath
!!!EEV: 1.0
!!!AMD: Mixolydian
!!!URL-scan: https://rosdok.uni-rostock.de/mcrviewer/recordIdentifier/rosdok_ppn738218359/iview2/phys_0716.iview2?x=-2231.2783251231526&y=164.1674877051264&scale=0.2314709236031927&rotation=0&layout=singlePageLayout&logicalDiv=log_0007
!!!ENC: Anna Maria Matuszewska
!!!EEV: 2024/20/03
*-	*-
